HTML/img/Component/Skyrim.svg

<?xml version="1.0" encoding="UTF-8" standalone="no"?>
<svg
   xmlns:dc="http://purl.org/dc/elements/1.1/"
   xmlns:cc="http://creativecommons.org/ns#"
   xmlns:rdf="http://www.w3.org/1999/02/22-rdf-syntax-ns#"
   xmlns:svg="http://www.w3.org/2000/svg"
   xmlns="http://www.w3.org/2000/svg"
   xmlns:sodipodi="http://sodipodi.sourceforge.net/DTD/sodipodi-0.dtd"
   xmlns:inkscape="http://www.inkscape.org/namespaces/inkscape"
   viewBox="0 0 348 348"
   fill="none"
   font-family="Arial"
   id="svg2"
   version="1.1"
   inkscape:version="0.91 r13725"
   sodipodi:docname="Skyrim.svg">
  <metadata
     id="metadata86">
    <rdf:RDF>
      <cc:Work
         rdf:about="">
        <dc:format>image/svg+xml</dc:format>
        <dc:type
           rdf:resource="http://purl.org/dc/dcmitype/StillImage" />
      </cc:Work>
    </rdf:RDF>
  </metadata>
  <defs
     id="defs84" />
  <sodipodi:namedview
     pagecolor="#ffffff"
     bordercolor="#666666"
     borderopacity="1"
     objecttolerance="10"
     gridtolerance="10"
     guidetolerance="10"
     inkscape:pageopacity="0"
     inkscape:pageshadow="2"
     inkscape:window-width="1440"
     inkscape:window-height="801"
     id="namedview82"
     showgrid="false"
     inkscape:zoom="0.95906437"
     inkscape:cx="-170.99082"
     inkscape:cy="79.49882"
     inkscape:window-x="0"
     inkscape:window-y="1"
     inkscape:window-maximized="1"
     inkscape:current-layer="svg2" />
  <path
     d="M5 5.8h337v337.6H5z"
     stroke-width="2"
     stroke="#000"
     id="path4" />
  <path
     d="M282.7 40.6c0-8.4 7-15.2 15.6-15.2 4.1 0 8 1.6 11 4.4a15 15 0 0 1 4.6 10.8c0 8.3-7 15.1-15.6 15.1s-15.6-6.8-15.6-15.1z"
     stroke-width="2"
     stroke="#000"
     id="path6" />
  <path
     d="m 17.626609,63.754293 0,-47.397336 60.26453,0 0,94.937043 -60.26453,0 0,-47.539707 z"
     id="path4217"
     inkscape:connector-curvature="0"
     style="fill:#ffffff;fill-opacity:1;stroke:#000000;stroke-width:1;stroke-miterlimit:4;stroke-dasharray:none;stroke-opacity:1" />
  <text
     xml:space="preserve"
     style="font-style:normal;font-weight:normal;font-size:40px;line-height:125%;font-family:sans-serif;letter-spacing:0px;word-spacing:0px;fill:#000000;fill-opacity:1;stroke:none;stroke-width:1px;stroke-linecap:butt;stroke-linejoin:miter;stroke-opacity:1"
     x="26.06707"
     y="156.14635"
     id="text4231"
     sodipodi:linespacing="125%"><tspan
       sodipodi:role="line"
       id="tspan4233"
       x="26.06707"
       y="156.14635"
       style="font-size:32.5px;fill:#ffffff;fill-opacity:1">&gt;: ▐</tspan></text>
  <path
     style="fill:#ffffff;fill-opacity:1;stroke:#000000;stroke-width:1;stroke-miterlimit:4;stroke-dasharray:none;stroke-opacity:1"
     inkscape:connector-curvature="0"
     id="path4165"
     d="m 17.626609,168.79697 0,-47.39733 60.26453,0 0,94.93704 -60.26453,0 0,-47.53971 z" />
  <path
     style="fill:#ffffff;fill-opacity:1;stroke:#000000;stroke-width:2.12070441;stroke-miterlimit:4;stroke-dasharray:none;stroke-opacity:1"
     inkscape:connector-curvature="0"
     id="path4167"
     d="m 87.382082,115.8111 0,-98.893791 129.899348,0 0,198.084631 -129.899348,0 0,-99.19084 z" />
  <path
     d="m 17.626609,273.75429 0,-47.39733 60.26453,0 0,94.93704 -60.26453,0 0,-47.53971 z"
     id="path4169"
     inkscape:connector-curvature="0"
     style="fill:#ffffff;fill-opacity:1;stroke:#000000;stroke-width:1;stroke-miterlimit:4;stroke-dasharray:none;stroke-opacity:1" />
  <path
     style="fill:#ffffff;fill-opacity:1;stroke:#000000;stroke-width:1;stroke-miterlimit:4;stroke-dasharray:none;stroke-opacity:1"
     inkscape:connector-curvature="0"
     id="path4171"
     d="m 87.626609,273.75429 0,-47.39733 60.264531,0 0,94.93704 -60.264531,0 0,-47.53971 z" />
  <path
     d="m 157.62661,273.75429 0,-47.39733 60.26453,0 0,94.93704 -60.26453,0 0,-47.53971 z"
     id="path4173"
     inkscape:connector-curvature="0"
     style="fill:#ffffff;fill-opacity:1;stroke:#000000;stroke-width:1;stroke-miterlimit:4;stroke-dasharray:none;stroke-opacity:1" />
  <text
     xml:space="preserve"
     style="font-style:normal;font-weight:normal;font-size:40px;line-height:125%;font-family:sans-serif;letter-spacing:0px;word-spacing:0px;fill:#000000;fill-opacity:1;stroke:none;stroke-width:1px;stroke-linecap:butt;stroke-linejoin:miter;stroke-opacity:1"
     x="150.91185"
     y="109.22562"
     id="text4175"
     sodipodi:linespacing="125%"><tspan
       sodipodi:role="line"
       x="150.91185"
       y="109.22562"
       style="font-size:25px;text-align:center;text-anchor:middle"
       id="tspan4185">MAIN</tspan><tspan
       sodipodi:role="line"
       x="150.91185"
       y="140.47562"
       style="font-size:25px;text-align:center;text-anchor:middle"
       id="tspan4201">DISPLAY</tspan></text>
  <text
     sodipodi:linespacing="125%"
     id="text4187"
     y="69.603668"
     x="46.643562"
     style="font-style:normal;font-weight:normal;font-size:40px;line-height:125%;font-family:sans-serif;letter-spacing:0px;word-spacing:0px;fill:#000000;fill-opacity:1;stroke:none;stroke-width:1px;stroke-linecap:butt;stroke-linejoin:miter;stroke-opacity:1"
     xml:space="preserve"><tspan
       id="tspan4191"
       style="font-size:12.5px;text-align:center;text-anchor:middle"
       y="69.603668"
       x="46.643562"
       sodipodi:role="line">RACE</tspan></text>
  <text
     xml:space="preserve"
     style="font-style:normal;font-weight:normal;font-size:40px;line-height:125%;font-family:sans-serif;letter-spacing:0px;word-spacing:0px;fill:#000000;fill-opacity:1;stroke:none;stroke-width:1px;stroke-linecap:butt;stroke-linejoin:miter;stroke-opacity:1"
     x="47.686245"
     y="171.78659"
     id="text4195"
     sodipodi:linespacing="125%"><tspan
       sodipodi:role="line"
       x="47.686245"
       y="171.78659"
       style="font-size:12.5px;text-align:center;text-anchor:middle"
       id="tspan4197">WEAPON</tspan></text>
  <text
     sodipodi:linespacing="125%"
     id="text4203"
     y="276.05487"
     x="47.686245"
     style="font-style:normal;font-weight:normal;font-size:40px;line-height:125%;font-family:sans-serif;letter-spacing:0px;word-spacing:0px;fill:#000000;fill-opacity:1;stroke:none;stroke-width:1px;stroke-linecap:butt;stroke-linejoin:miter;stroke-opacity:1"
     xml:space="preserve"><tspan
       id="tspan4205"
       style="font-size:12.5px;text-align:center;text-anchor:middle"
       y="276.05487"
       x="47.686245"
       sodipodi:role="line">ENEMY</tspan></text>
  <text
     xml:space="preserve"
     style="font-style:normal;font-weight:normal;font-size:40px;line-height:125%;font-family:sans-serif;letter-spacing:0px;word-spacing:0px;fill:#000000;fill-opacity:1;stroke:none;stroke-width:1px;stroke-linecap:butt;stroke-linejoin:miter;stroke-opacity:1"
     x="117.546"
     y="269.7988"
     id="text4207"
     sodipodi:linespacing="125%"><tspan
       sodipodi:role="line"
       x="117.546"
       y="269.7988"
       style="font-size:12.5px;text-align:center;text-anchor:middle"
       id="tspan4209">HOME</tspan><tspan
       sodipodi:role="line"
       x="117.546"
       y="285.4238"
       style="font-size:12.5px;text-align:center;text-anchor:middle"
       id="tspan4211">CITY</tspan></text>
  <text
     sodipodi:linespacing="125%"
     id="text4213"
     y="269.7988"
     x="188.36307"
     style="font-style:normal;font-weight:normal;font-size:40px;line-height:125%;font-family:sans-serif;letter-spacing:0px;word-spacing:0px;fill:#000000;fill-opacity:1;stroke:none;stroke-width:1px;stroke-linecap:butt;stroke-linejoin:miter;stroke-opacity:1"
     xml:space="preserve"><tspan
       id="tspan4217"
       style="font-size:12.5px;text-align:center;text-anchor:middle"
       y="269.7988"
       x="188.36307"
       sodipodi:role="line">DRAGON</tspan><tspan
       style="font-size:12.5px;text-align:center;text-anchor:middle"
       y="285.4238"
       x="188.36307"
       sodipodi:role="line"
       id="tspan4221">SHOUT</tspan></text>
  <path
     style="fill:#ffffff;fill-opacity:1;stroke:#000000;stroke-width:0.78695452;stroke-miterlimit:4;stroke-dasharray:none;stroke-opacity:1"
     inkscape:connector-curvature="0"
     id="path4223"
     d="m 231.55056,99.671439 0,-17.31124 102.1849,0 0,34.674481 -102.1849,0 0,-17.363241 z" />
  <path
     d="m 231.55056,197.67144 0,-17.31124 102.1849,0 0,34.67448 -102.1849,0 0,-17.36324 z"
     id="path4225"
     inkscape:connector-curvature="0"
     style="fill:#ffffff;fill-opacity:1;stroke:#000000;stroke-width:0.78695452;stroke-miterlimit:4;stroke-dasharray:none;stroke-opacity:1" />
  <text
     xml:space="preserve"
     style="font-style:normal;font-weight:normal;font-size:40px;line-height:125%;font-family:sans-serif;letter-spacing:0px;word-spacing:0px;fill:#000000;fill-opacity:1;stroke:none;stroke-width:1px;stroke-linecap:butt;stroke-linejoin:miter;stroke-opacity:1"
     x="280.11914"
     y="123.99392"
     id="text4227"
     sodipodi:linespacing="125%"><tspan
       id="tspan4231"
       sodipodi:role="line"
       x="280.11914"
       y="123.99392"
       style="font-size:50px;text-align:center;text-anchor:middle">^</tspan></text>
  <text
     sodipodi:linespacing="125%"
     id="text4236"
     y="-171.74704"
     x="-282.11914"
     style="font-style:normal;font-weight:normal;font-size:40px;line-height:125%;font-family:sans-serif;letter-spacing:0px;word-spacing:0px;fill:#000000;fill-opacity:1;stroke:none;stroke-width:1px;stroke-linecap:butt;stroke-linejoin:miter;stroke-opacity:1"
     xml:space="preserve"
     transform="scale(-1,-1)"><tspan
       style="font-size:50px;text-align:center;text-anchor:middle"
       y="-171.74704"
       x="-282.11914"
       sodipodi:role="line"
       id="tspan4238">^</tspan></text>
  <path
     style="fill:#ffffff;fill-opacity:1;stroke:#000000;stroke-width:0.94573224;stroke-miterlimit:4;stroke-dasharray:none;stroke-opacity:1"
     inkscape:connector-curvature="0"
     id="path4240"
     d="m 231.62995,148.13239 0,-25.04036 102.02612,0 0,50.15594 -102.02612,0 0,-25.11558 z" />
  <text
     xml:space="preserve"
     style="font-style:normal;font-weight:normal;font-size:40px;line-height:125%;font-family:sans-serif;letter-spacing:0px;word-spacing:0px;fill:#000000;fill-opacity:1;stroke:none;stroke-width:1px;stroke-linecap:butt;stroke-linejoin:miter;stroke-opacity:1"
     x="281.58704"
     y="155.70992"
     id="text4242"
     sodipodi:linespacing="125%"><tspan
       id="tspan4244"
       sodipodi:role="line"
       x="281.58704"
       y="155.70992"
       style="font-size:25px;text-align:center;text-anchor:middle">SELECT</tspan></text>
  <path
     d="m 230.76636,273.2202 0,-47.76615 101.66794,0 0,95.67581 -101.66794,0 0,-47.90966 z"
     id="path4246"
     inkscape:connector-curvature="0"
     style="fill:#ffffff;fill-opacity:1;stroke:#000000;stroke-width:1.3039006;stroke-miterlimit:4;stroke-dasharray:none;stroke-opacity:1" />
  <text
     sodipodi:linespacing="125%"
     id="text4248"
     y="281.87454"
     x="280.54434"
     style="font-style:normal;font-weight:normal;font-size:40px;line-height:125%;font-family:sans-serif;letter-spacing:0px;word-spacing:0px;fill:#000000;fill-opacity:1;stroke:none;stroke-width:1px;stroke-linecap:butt;stroke-linejoin:miter;stroke-opacity:1"
     xml:space="preserve"><tspan
       style="font-size:25px;text-align:center;text-anchor:middle"
       y="281.87454"
       x="280.54434"
       sodipodi:role="line"
       id="tspan4250">SUBMIT</tspan></text>
</svg>

<svg xmlns="http://www.w3.org/2000/svg" fill="none" font-family="Arial" viewBox="0 0 348 348">
    <path stroke="#000" stroke-width="2" d="M5 5.8h337v337.6H5z"/>
    <path stroke="#000" stroke-width="2" d="M282.7 40.6c0-8.4 7-15.2 15.6-15.2 4.1 0 8 1.6 11 4.4a15 15 0 0 1 4.6 10.8c0 8.3-7 15.1-15.6 15.1s-15.6-6.8-15.6-15.1z"/>
    <path fill="#fff" stroke="#000" d="M17.627 63.754V16.357H77.89v94.937H17.627v-47.54z"/>
    <text x="26.067" y="156.146" fill="#000" font-family="sans-serif" font-size="40" font-weight="400" letter-spacing="0" word-spacing="0" style="line-height:125%">
        <tspan x="26.067" y="156.146" fill="#fff" font-size="32.5">&gt;: ▐</tspan>
    </text>
    <path fill="#fff" stroke="#000" d="M17.627 168.797V121.4H77.89v94.937H17.627v-47.54z"/>
    <path fill="#fff" stroke="#000" stroke-width="2.121" d="M87.382 115.811V16.917h129.9v198.085h-129.9v-99.19z"/>
    <path fill="#fff" stroke="#000" d="M17.627 273.754v-47.397H77.89v94.937H17.627v-47.54z"/>
    <path fill="#fff" stroke="#000" d="M87.627 273.754v-47.397h60.264v94.937H87.627v-47.54z"/>
    <path fill="#fff" stroke="#000" d="M157.627 273.754v-47.397h60.264v94.937h-60.264v-47.54z"/>
    <text x="150.912" y="109.226" fill="#000" font-family="sans-serif" font-size="40" font-weight="400" letter-spacing="0" word-spacing="0" style="line-height:125%">
        <tspan style="text-align:center" x="150.912" y="109.226" font-size="25" text-anchor="middle">MAIN</tspan><tspan style="text-align:center" x="150.912" y="140.476" font-size="25" text-anchor="middle">DISPLAY</tspan>
    </text>
    <text style="line-height:125%" x="46.644" y="69.604" fill="#000" font-family="sans-serif" font-size="40" font-weight="400" letter-spacing="0" word-spacing="0">
        <tspan x="46.644" y="69.604" font-size="12.5" text-anchor="middle" style="text-align:center">RACE</tspan>
    </text>
    <text x="47.686" y="171.787" fill="#000" font-family="sans-serif" font-size="40" font-weight="400" letter-spacing="0" word-spacing="0" style="line-height:125%">
        <tspan style="text-align:center" x="47.686" y="171.787" font-size="12.5" text-anchor="middle">WEAPON</tspan>
    </text>
    <text style="line-height:125%" x="47.686" y="276.055" fill="#000" font-family="sans-serif" font-size="40" font-weight="400" letter-spacing="0" word-spacing="0">
        <tspan x="47.686" y="276.055" font-size="12.5" text-anchor="middle" style="text-align:center">ENEMY</tspan>
    </text>
    <text x="117.546" y="269.799" fill="#000" font-family="sans-serif" font-size="40" font-weight="400" letter-spacing="0" word-spacing="0" style="line-height:125%">
        <tspan style="text-align:center" x="117.546" y="269.799" font-size="12.5" text-anchor="middle">HOME</tspan><tspan style="text-align:center" x="117.546" y="285.424" font-size="12.5" text-anchor="middle">CITY</tspan>
    </text>
    <text style="line-height:125%" x="188.363" y="269.799" fill="#000" font-family="sans-serif" font-size="40" font-weight="400" letter-spacing="0" word-spacing="0">
        <tspan x="188.363" y="269.799" font-size="12.5" text-anchor="middle" style="text-align:center">DRAGON</tspan><tspan x="188.363" y="285.424" font-size="12.5" text-anchor="middle" style="text-align:center">SHOUT</tspan>
    </text>
    <path fill="#fff" stroke="#000" stroke-width=".787" d="M231.55 99.671v-17.31h102.185v34.674H231.551V99.67z"/>
    <path fill="#fff" stroke="#000" stroke-width=".787" d="M231.55 197.671v-17.31h102.185v34.674H231.551V197.67z"/>
    <text x="280.119" y="123.994" fill="#000" font-family="sans-serif" font-size="40" font-weight="400" letter-spacing="0" word-spacing="0" style="line-height:125%">
        <tspan style="text-align:center" x="280.119" y="123.994" font-size="50" text-anchor="middle">^</tspan>
    </text>
    <text style="line-height:125%" x="-282.119" y="-171.747" fill="#000" font-family="sans-serif" font-size="40" font-weight="400" letter-spacing="0" transform="scale(-1)" word-spacing="0">
        <tspan x="-282.119" y="-171.747" font-size="50" text-anchor="middle" style="text-align:center">^</tspan>
    </text>
    <path fill="#fff" stroke="#000" stroke-width=".946" d="M231.63 148.132v-25.04h102.026v50.156H231.63v-25.116z"/>
    <text x="281.587" y="155.71" fill="#000" font-family="sans-serif" font-size="40" font-weight="400" letter-spacing="0" word-spacing="0" style="line-height:125%">
        <tspan style="text-align:center" x="281.587" y="155.71" font-size="25" text-anchor="middle">SELECT</tspan>
    </text>
    <path fill="#fff" stroke="#000" stroke-width="1.304" d="M230.766 273.22v-47.766h101.668v95.676H230.766v-47.91z"/>
    <text style="line-height:125%" x="280.544" y="281.875" fill="#000" font-family="sans-serif" font-size="40" font-weight="400" letter-spacing="0" word-spacing="0">
        <tspan x="280.544" y="281.875" font-size="25" text-anchor="middle" style="text-align:center">SUBMIT</tspan>
    </text>
</svg>
